!!!!SEGMENT: pl-kk--kk-i-513--015_haser-august-ferdinand--miserere-libera-me-de-sanguinibus.krn
!!!cenid: 17xx:1855
!!!COM: Häser, August Ferdinand
!!!COM-rism: pe37240
!!!CDT: 1779/10/15-1844/11/01
!!!CNT: German
!!!OTL: Miserere - Libera me de sanguinibus
!!!PDT:
!!!AGN: Sacred
!!!SMS-siglum: PL-Kk
!!!SMS-shelfmark: Kk.I.513
!!!SMS-variant:
!!!SMS-altvar:
!!!NIFC-rismID: 1001138548
!!!system-decoration: [(s1,s2,s3,s4)][(s5,s6)]
**kern	**kern	**kern	**text	**dynam	**kern	**text	**dynam	**kern	**text	**dynam	**kern	**text	**dynam
*part6	*part5	*part4	*part4	*part4	*part3	*part3	*part3	*part2	*part2	*part2	*part1	*part1	*part1
*staff6	*staff5	*staff4	*staff4	*	*staff3	*staff3	*	*staff2	*staff2	*	*staff1	*staff1	*
*	*I"[Organo]	*I"Basso.	*	*	*I"Tenore.	*	*	*I"Alto	*	*	*I"Soprano.	*	*
*	*I'[Org]	*I'B	*	*	*I'T	*	*	*I'A	*	*	*I'S	*	*
*clefF4	*clefG2	*clefF4	*	*	*clefC4	*	*	*clefG2	*	*	*clefG2	*	*
*k[f#c#g#d#]	*k[f#c#g#d#]	*k[f#c#g#d#]	*	*	*k[f#c#g#d#]	*	*	*k[f#c#g#d#]	*	*	*k[f#c#g#d#]	*	*
*E:	*E:	*E:	*	*	*E:	*	*	*E:	*	*	*E:	*	*
*M4/4	*M4/4	*M4/4	*	*	*M4/4	*	*	*M4/4	*	*	*M4/4	*	*
*met(c)	*met(c)	*met(c)	*	*	*met(c)	*	*	*met(c)	*	*	*met(c)	*	*
=1	=1	=1	=1	=1	=1	=1	=1	=1	=1	=1	=1	=1	=1
*^	*^	*	*	*	*	*	*	*	*	*	*	*	*
*2\right	*	*2\right	*	*2\right	*	*	*2\right	*	*	*	*	*	*2\right	*	*
!LO:TX:t=P:problem:all\right:global	!	!LO:TX:t=P:problem:all\right:global	!	!LO:TX:t=P:problem:all\right:global	!	!	!LO:TX:t=P:problem:all\right:global	!	!	!	!	!	!LO:TX:t=P:problem:all\right:global	!	!
!LO:TX:a:t=P:w źródle ogonek przy met(c):problem	!	!LO:TX:a:t=P:w źródle ogonek przy met(c):problem	!	!	!	!	!LO:TX:t=P:problem:w źródle kolejność znaków przykluczowych to c# F# d# G#	!	!	!	!	!	!	!	!
!	!	!	!	!	!	!	!	!	!	!LO:TX:a:Bi:t=N 15.:problem:'N 15.' znajduje się przed kluczem i oznaczeniem metrum na pięciolinii	!	!	!LO:TX:a:Bi:t=N 15.:problem:'N 15.' znajduje się przed kluczem i oznaczeniem metrum na pięciolinii	!	!
!	!	!LO:TX:a:Bi:t=No 15.:problem:'No 15.' znajduje się przed kluczem i oznaczeniem metrum na pięciolinii	!	!LO:TX:a:Bi:t=N 15.:problem:'N 15.' znajduje się przed kluczem i oznaczeniem metrum na pięciolinii	!	!	!LO:TX:a:Bi:t=No 15.:problem:'No 15.' znajduje się przed kluczem i oznaczeniem metrum na pięciolinii	!	!	!	!	!	!	!	!
!	!	!	!	!	!	!	!	!	!	!LO:TX:a:Bi:t=Sostenuto:rj	!	!	!	!	!
!	!	!	!	!	!	!	!LO:TX:a:Bi:t=Sostenuto:rj	!	!	!LO:TX:a:Bi:t=piu:rj	!	!	!	!	!
!	!	!	!	!LO:TX:a:Bi:t=Sostenuto.:rj	!	!	!LO:TX:a:Bi:t=Tutti.	!	!	!LO:TX:a:Bi:t=tutti	!	!	!LO:TX:a:Bi:t=Sostenuto	!	!
!	!	!	!	!	!	!LO:DY:b:rj	!	!	!LO:DY:a:rj	!	!	!LO:DY:b:rj	!	!	!LO:DY:b:rj
2B/	2E\	2g# 2e/	2ryy	2E\	Li-	p	2B\	Li-	p	2e/	Li-	pp	(<2g#/	Li-	p
!	!	!	!	!LO:TX:a:Bi:t=tutti	!	!	!	!	!	!	!	!	!	!	!
2B/	4F#\	8b/L	4d#\	4F#\	-be-	.	4B\	-be-	.	4d#/	-be-	.	8b/L	.	.
.	.	8a/	.	.	.	.	.	.	.	.	.	.	8a/J)	.	.
!	!	!	!	!	!	!	!	!	!	!	!	!	!LO:TX:t=P:problem:w źródle belka poprawiona na chorągiewki	!	!
.	4A\	8f#/	4ryy	4A\	-ra	.	4B\	-ra	.	4f#/	-ra	.	8f#/	-be-	.
.	.	8d#/J	.	.	.	.	.	.	.	.	.	.	8d#/	-ra	.
*v	*v	*	*	*	*	*	*	*	*	*	*	*	*	*	*
=2	=2	=2	=2	=2	=2	=2	=2	=2	=2	=2	=2	=2	=2	=2
!	!	!	!	!	!	!	!	!	!	!	!	!LO:TX:t=P:problem:w źródle poprawiany tekst	!	!
!	!	!	!	!	!	!	!	!	!	!	!	!LO:TX:a:Bi:t=tutti	!	!
4B 4G#\	4e/	4ryy	4G#\	me	.	4B\	me	.	4e/	me	.	4e/	me,	.
4c#\	4ee/	2.e\	4r	.	.	4c#\	de	.	2e/	de	.	(>4ee\	de	.
4B\	4dd#/	.	2r	.	.	4B\	san-	.	.	.	.	4dd#\)	.	.
4A\	4cc#/	.	.	.	.	4A\	-gvi-	.	4e/	san-	.	4cc#\	san-	.
=3	=3	=3	=3	=3	=3	=3	=3	=3	=3	=3	=3	=3	=3	=3
2G#\	2b 2e/	2ryy	4r	.	.	4G#/	-ni-	.	4.e/	-gvi-	.	4b/	-gvi-	.
.	.	.	(>4G#\	li-	.	8B\	-bus	.	.	.	.	8b/	-ni-	.
.	.	.	.	.	.	8B\	.	.	8e/	-ni-	.	8b/	-bus	.
.	.	.	.	.	.	.	.	.	.	.	.	8qb/	.	.
4F#\	2a/	4e 4c#\	4F#\)	.	.	(>4c#\	De-	.	4e/	-bus	.	2a/	De-	.
4BB/	.	4f# 4d#\	8BB/	-be-	.	4d#\)	.	.	4f#/	De-	.	.	.	.
.	.	.	8BB/	-ra	.	.	.	.	.	.	.	.	.	.
=4	=4	=4	=4	=4	=4	=4	=4	=4	=4	=4	=4	=4	=4	=4
4B 4E\	4g# 4e/	4ryy	4E\	me	.	4B\	-us	.	4e/	-us	.	4g#/	-us	.
4c#\	4ee/	2.e\	4r	.	.	4c#\	De-	.	4e/	De-	.	4ee\	De-	.
4B\	4dd#/	.	2r	.	.	4B\	-us	.	4e/	-us	.	4dd#\	-us	.
4A\	4cc#/	.	.	.	.	4A\	sa-	.	4e/	sa-	.	4cc#\	sa-	.
!	!	!	!	!	!	!LO:LB:g=original	!	!	!	!	!	!	!	!
=5	=5	=5	=5	=5	=5	=5	=5	=5	=5	=5	=5	=5	=5	=5
2G#\	2b 2e/	2ryy	4r	.	.	4G#/	-lu-	.	4e/	-lu-	.	4.b/	-lu-	.
.	.	.	(>4G#\	li-	.	4B\	-tis	.	4e/	-tis	.	.	.	.
.	.	.	.	.	.	.	.	.	.	.	.	8b/	-tis	.
.	.	.	.	.	.	.	.	.	.	.	.	8qb/	.	.
4F# 4FF#\	2a/	4e 4c#\	4F#\)	.	.	(>4c#\	me-	.	4e/	me-	.	2a/	me-	.
4BB/	.	4f# 4d#\	8BB/	-be-	.	4d#\)	.	.	4f#/	.	.	.	.	.
.	.	.	8BB/	-ra	.	.	.	.	.	.	.	.	.	.
!LO:LB:g=original	!LO:LB:g=original	!	!LO:LB:g=original	!	!	!	!	!	!LO:LB:g=original	!	!	!LO:LB:g=original	!	!
*	*v	*v	*	*	*	*	*	*	*	*	*	*	*	*
=6	=6	=6	=6	=6	=6	=6	=6	=6	=6	=6	=6	=6	=6
4B 4E\	4g# 4e/	4E\	me	.	4B\	-ae	.	4e/	-ae	.	4g#/	-ae!	.
4r	4r	4r	.	.	4r	.	.	4r	.	.	4r	.	.
8r	8r	2r	.	.	8r	.	.	8r	.	.	8r	.	.
!	!	!	!	!	!	!	!LO:DY:a:rj	!	!	!	!	!	!LO:DY:a:rj
8c#\	4g#/	.	.	.	8e\	et	mf	8g#/	et	.	8g#/	et	p
4f# 4d#\	.	.	.	.	8d#\	e-	.	8f#/	e-	.	8g#/	ex-	.
!	!	!	!	!	!	!	!	!LO:SIC:l:s=xul:v	!	!	!LO:SIC:l:s=ul:v	!	!
.	16a#X/LL	.	.	.	8d#\	-xul-	.	8f#/	-xal-	.	(<16a#X/LL	-al-	.
.	16b#X/JJ	.	.	.	.	.	.	.	.	.	16b#X/JJ)	.	.
=7	=7	=7	=7	=7	=7	=7	=7	=7	=7	=7	=7	=7	=7
*	*^	*	*	*	*	*	*	*	*	*	*	*	*
!	!	!	!LO:TX:a:Bi:t=1	!	!	!	!	!	!	!	!	!	!	!
8c#\L	8cc#/L	8e\	1r	.	.	8c#\	-ta-	.	8e/	-ta-	.	8cc#\	-ta-	.
8f#\	8b#X/	4.g#\	.	.	.	8f#\	-bit	.	8g#/	-bit	.	8b#X\	-bit	.
8e\	8cc#/	.	.	.	.	8e\	e-	.	8g#/	e-	.	8cc#\	e-	.
!	!	!	!	!	!	!	!	!	!LO:SIC:l:s=xul:v	!	!	!	!	!
8B#X\J	8dd#/J	.	.	.	.	8B#X\	-xul-	.	8g#/	-xal-	.	8dd#\	-xul-	.
8c#\L	8ee/L	2g#\	.	.	.	8c#\	-ta-	.	8g#/	-ta-	.	8ee\	-ta-	.
8B#\	8dd#/	.	.	.	.	8B#\	-bit	.	8g#/	-bit	.	8dd#\	-bit	.
8c#\	8ee/	.	.	.	.	8c#\	lin-	.	8g#/	lin-	.	8ee\	lin-	.
8e\J	8cc#/J	.	.	.	.	8e\	-gva	.	8g#/	-gva	.	8cc#\	-gva	.
=8	=8	=8	=8	=8	=8	=8	=8	=8	=8	=8	=8	=8	=8	=8
*^	*	*	*	*	*	*	*	*	*	*	*	*	*	*
!	!	!	!	!	!	!	!	!	!LO:DY:a:rj	!	!	!	!	!	!
4F#\	2ryy	4a#X 4e/	2ryy	2r	.	.	4F#/	me-	f	4e/	me-	.	4a#X/	me-	.
4G#\	.	4b 4d#/	.	.	.	.	4G#/	-a	.	4d#/	-a	.	4b/	-a	.
8r	8ryy	8r	8ryy	8r	.	.	8r	.	.	8r	.	.	8r	.	.
!	!	!	!	!	!	!LO:DY:a:rj	!	!	!	!	!	!LO:DY:a:rj	!	!	!
8G#/L	4.E\	8cc#/L	4.g#\	8E\	ju-	f	8G#/	ju-	.	8g#/	ju-	mf	8cc#\	ju-	.
8c#/	.	8ee/	.	8E\	-sti-	.	8c#\	-sti-	.	8g#/	-sti-	.	8ee\	-sti-	.
!	!	!	!	!LO:TX:t=P:problem:w źrodle wykreślony tekst	!	!	!	!	!	!	!	!	!	!	!
!	!	!	!	!	!	!	!	!	!LO:DY:a:rj	!	!	!	!	!	!
8e/J	.	8cc#/J	.	16E\	-ti-	.	16e\	-ti-	mf	16g#/	-ti-	.	16cc#\	-ti-	.
.	.	.	.	16E\	-am	.	16e\	-am	.	16g#/	-am	.	16cc#\	-am	.
!	!	!	!	!	!	!	!LO:LB:g=original	!	!	!	!	!	!LO:LB:g=original	!	!
*	*	*v	*v	*	*	*	*	*	*	*	*	*	*	*	*
=9	=9	=9	=9	=9	=9	=9	=9	=9	=9	=9	=9	=9	=9	=9
4d#/	2F#\	4b 4f#/	2F#\	tu-	.	4d#\	tu-	.	(<4.f#/	tu-	.	(<4b/	tu-	.
4c#/	.	4a#X 4e/	.	.	.	4c#\	-am	.	.	.	.	4a#X/	.	.
.	.	.	.	.	.	.	.	.	8e/)	.	.	.	.	.
!	!	!	!	!	!	!	!	!	!LO:LB:g=original	!	!	!	!	!
8BL 8G#\	2ryy	8bL 8d#/	8G#\	-am	.	8B\	.	.	8d#/	-am	.	8b/)	-am	.
!	!	!	!	!	!LO:DY:a:rj	!	!	!LO:DY:a:rj	!	!	!	!	!	!
8eJ 8E\	.	8cc# 8g#/	8E\	ju-	f	8e\	Ju-	f	8g#/	ju-	.	8cc#\	ju-	.
4c# 4E\	.	8ee 8g# 8e/	8E\	-sti-	.	8c#\	-sti-	.	8g#/	-sti-	.	8ee\	-sti-	.
.	.	8gg#J 8g#/	16E\	-ti-	.	16c#\	-ti-	.	16g#/	-ti-	.	16gg#\	-ti-	.
.	.	.	16E\	-am	.	16c#\	-am	.	16g#/	-am	.	16gg#\	-am	.
*v	*v	*	*	*	*	*	*	*	*	*	*	*	*	*
=10	=10	=10	=10	=10	=10	=10	=10	=10	=10	=10	=10	=10	=10
*	*^	*^	*	*	*	*	*	*	*	*	*	*	*
4F#\	2b 2f#/	2d#\	4F#\	2ryy	tu-	.	2d#\	tu-	.	[<2.f#/	tu-	.	2b/	tu-	.
8D#\L	.	.	8D#/L	.	.	.	.	.	.	.	.	.	.	.	.
8BB\J	.	.	8BB/J	.	.	.	.	.	.	.	.	.	.	.	.
2FF#/	8bL 8f# 8c#/	4ryy	2F#/	2FF#\	.	.	2c#\	.	.	.	.	.	(<8b/L	.	.
.	16a#X/L	.	.	.	.	.	.	.	.	.	.	.	16a#X/L	.	.
.	16g#/JJ	.	.	.	.	.	.	.	.	.	.	.	16g#/JJ	.	.
.	4a#/	8f#L 8c#\	.	.	.	.	.	.	.	8f#/L]	.	.	4a#/)	.	.
.	.	8eJ 8c#\	.	.	.	.	.	.	.	8e/J	.	.	.	.	.
*	*v	*v	*	*	*	*	*	*	*	*	*	*	*	*	*
*	*	*v	*v	*	*	*	*	*	*	*	*	*	*	*
=11	=11	=11	=11	=11	=11	=11	=11	=11	=11	=11	=11	=11	=11
2F# 2BB\	2b 2d#/	2BB/	-am	.	2B\	-am	.	2d#/	-am	.	2b\	-am.	.
2r	2r	2r	.	.	2r	.	.	2r	.	.	2r	.	.
==	==	==	==	==	==	==	==	==	==	==	==	==	==
*-	*-	*-	*-	*-	*-	*-	*-	*-	*-	*-	*-	*-	*-
!!title: @{OTL};
!!!RDF**kern: > = above
!!!RDF**kern: < = below
!!!EED: Wojciech Jakubiak-Danek
!!!EST: 2021-01-03
!!!URL-scan: http://repozytorium.nifc.pl/skany/pl-kk-nut--i-513
!!!ONB-nifc:
!!!ENC: Katarzyna Serwa
!!!END: 2020-01-01
